X:352
T:Keel Row. RH.352, The
R:strathspey
B:Rev.R.Harrison's MS,c1815,Cumbria
O:England
A:Temple Sowerby,Cumbria
Z:vmp.Simon Wilson. Review PJH, 2008.
M:C
L:1/8
Q:2/4=80
K:G
c|B2G>B c2A>c|B2G>B AFDz/c/|\
B2G>B c<ed>c|B<d F>A G2z:|
|:c|Bddg f<edc|B2G>B AFDz/c/|\
Bddg f<edc|B>dF>A G2z:|

